X: 136011
T: PADDY O'FLYNN
Q: "Irish Jig."
R: Jig.
%R: jig
B: James Kerr "Merry Melodies" v.1 p.36 s.0 #11
Z: 2016 John Chambers <jc:trillian.mit.edu>
M: 6/8
L: 1/8
K: D
uA |\
FGA AB=c | BGB AFA | BGE EGE | AFD uD2uA |\
FGA AB=c | BGB AFA | Bcd ecA | d3  d2 :|
|: ue |\
fdf fdf | ece ece | fdf fdf | geg geg |\
fdf fdf | ece ecA | Bcd ecA | d3  d2 :|

%%sep 1 1 500
%%sep 1 1 500

